app/img/icomoon/angle-down-2.svg

<svg width="14" height="8" viewBox="0 0 14 8" fill="none" xmlns="http://www.w3.org/2000/svg">
<path d="M1.10767 0.390625L0.388916 1.10938L6.63892 7.35938L6.99829 7.70312L7.35767 7.35938L13.6077 1.10938L12.8889 0.390625L6.99829 6.28125L1.10767 0.390625Z" fill="white"/>
</svg>

<svg width="14" height="8" fill="none" xmlns="http://www.w3.org/2000/svg"><path d="M1.108.39l-.72.72 6.25 6.25.36.343.36-.344 6.25-6.25-.72-.718-5.89 5.89-5.89-5.89z" fill="#fff"/></svg>
